public/front/assets/imgs/theme/icons/icon-1.svg

<svg width="70" height="70" viewBox="0 0 70 70" fill="none" xmlns="http://www.w3.org/2000/svg">
<g clip-path="url(#clip0)">
<path d="M44 5H34L22 17L28 20.5L34 14.5L46.5 27L51 32.5L57.5 33.5L60.5 28V9L55.5 5H44Z" fill="#FDC040"/>
<path d="M64.5946 14.3882H61.8893L61.8919 9.55181C61.8935 6.30487 59.2536 3.66182 56.0061 3.66023L35.474 3.64862C35.473 3.64862 35.4725 3.64862 35.4714 3.64862C34.3027 3.64862 33.2037 4.10365 32.377 4.93029L1.72456 35.5827C0.612331 36.695 0 38.1735 0 39.7466C0 41.3197 0.612331 42.7982 1.72456 43.9105L21.6169 63.8028C22.765 64.9509 24.2731 65.5247 25.7807 65.5247C27.2889 65.5247 28.797 64.9509 29.9451 63.8028L49.2441 44.5038C49.772 43.9759 49.772 43.1202 49.2441 42.5929C48.7162 42.065 47.8605 42.065 47.3327 42.5929L28.0337 61.8919C26.7916 63.134 24.7704 63.134 23.5283 61.8919L3.63598 41.9996C3.03421 41.3978 2.7027 40.5975 2.7027 39.7466C2.7027 38.8957 3.03421 38.0954 3.63598 37.4936L34.2879 6.84172C34.6041 6.52552 35.0243 6.35132 35.4714 6.35132H35.4725L56.0046 6.36294C57.7613 6.36346 59.1903 7.794 59.1892 9.55075L59.1829 20.8747H53.096C52.5718 20.8747 52.0972 20.6603 51.7541 20.3151C52.3195 20.0728 52.8495 19.7228 53.3103 19.262C55.2523 17.3194 55.2523 14.1596 53.3103 12.2176C51.3677 10.275 48.2079 10.275 46.2653 12.2176C44.3233 14.1596 44.3233 17.3194 46.2653 19.262C46.9853 19.982 47.8732 20.4344 48.8039 20.6208C49.4653 22.3474 51.1392 23.5774 53.096 23.5774H59.1813L59.1776 30.0554C59.1776 30.5025 59.0034 30.9222 58.6872 31.2378L54.9773 34.9482C54.4494 35.4761 54.4494 36.3318 54.9773 36.8597C55.5047 37.387 56.3603 37.387 56.8882 36.8597L60.5986 33.1493C61.4242 32.3231 61.8798 31.2252 61.8803 30.057L61.884 23.5774H64.5946C67.1279 23.5774 69.1892 21.5166 69.1892 18.9828C69.1892 16.4495 67.1279 14.3882 64.5946 14.3882ZM48.1767 14.1285C48.6212 13.684 49.2045 13.4623 49.7883 13.4623C50.3716 13.4623 50.9549 13.6845 51.3994 14.1285C51.5398 14.2694 51.6559 14.4251 51.752 14.5893C50.2687 15.0438 49.1032 16.231 48.6772 17.727C48.4982 17.6272 48.3288 17.5031 48.1767 17.3511C47.2883 16.4622 47.2883 15.0169 48.1767 14.1285ZM64.5946 20.8747H61.8856L61.8877 17.0909H64.5946C65.6377 17.0909 66.4865 17.9397 66.4865 18.9828C66.4865 20.0258 65.6377 20.8747 64.5946 20.8747Z" fill="#3BB77E"/>
<path d="M21.8127 37.7439C21.979 38.3419 22.5222 38.7331 23.1134 38.7331C23.2338 38.7331 23.3557 38.7173 23.4766 38.6835L37.3491 34.8221C38.068 34.622 38.4887 33.8767 38.2887 33.1577C38.0886 32.4393 37.3438 32.0186 36.6243 32.2186L22.7518 36.0795C22.0334 36.2801 21.6127 37.0249 21.8127 37.7439Z" fill="#3BB77E"/>
<path d="M27.9191 39.527C27.1663 40.2798 26.752 41.2801 26.752 42.3448C26.752 43.409 27.1663 44.4093 27.9191 45.1621C28.6961 45.9386 29.716 46.3271 30.7363 46.3271C31.7567 46.3271 32.7771 45.9386 33.5541 45.1621C35.1076 43.6085 35.1076 41.0805 33.5541 39.527C32.0006 37.9735 29.4726 37.9735 27.9191 39.527ZM31.6427 43.2506C31.1428 43.7505 30.3299 43.7505 29.83 43.2506C29.5877 43.0089 29.4547 42.6869 29.4547 42.3443C29.4547 42.0022 29.5882 41.6802 29.83 41.4379C30.0802 41.1882 30.4085 41.0631 30.7363 41.0631C31.0647 41.0631 31.393 41.1882 31.6427 41.4379C32.1426 41.9378 32.1426 42.7513 31.6427 43.2506Z" fill="#3BB77E"/>
<path d="M34.2235 31.4812C35.777 29.9272 35.777 27.3997 34.2235 25.8462C33.4708 25.0935 32.4699 24.6791 31.4057 24.6791C30.3415 24.6791 29.3407 25.0935 28.5885 25.8462C27.035 27.3997 27.035 29.9272 28.5885 31.4812C29.3655 32.2577 30.3854 32.6462 31.4057 32.6462C32.4261 32.6462 33.4465 32.2577 34.2235 31.4812ZM30.4994 27.7571C30.7417 27.5148 31.0637 27.3818 31.4057 27.3818C31.7483 27.3818 32.0703 27.5148 32.3121 27.7571C32.812 28.257 32.812 29.0699 32.3121 29.5698C31.8127 30.0697 30.9993 30.0697 30.4994 29.5698C30 29.0699 30 28.257 30.4994 27.7571Z" fill="#3BB77E"/>
<path d="M13.4405 34.9515C12.9127 34.4236 12.057 34.4236 11.5291 34.9515L7.68936 38.7912C7.43598 39.0446 7.29346 39.3882 7.29346 39.7466C7.29346 40.1051 7.43598 40.4487 7.68936 40.7021L24.8257 57.8384C25.0891 58.1018 25.4354 58.2338 25.7811 58.2338C26.1269 58.2338 26.4726 58.1018 26.7366 57.8384L52.3573 32.2171C52.8852 31.6892 52.8852 30.8335 52.3573 30.3057L35.2216 13.1699C34.9682 12.9165 34.6245 12.774 34.2661 12.774C33.9077 12.774 33.564 12.9165 33.3107 13.1699L19.1737 27.3068C18.6459 27.8347 18.6459 28.6904 19.1737 29.2182C19.7011 29.7456 20.5568 29.7456 21.0846 29.2182L34.2661 16.0368L49.491 31.2616L25.7811 54.9715L10.5562 39.7466L13.4405 36.8624C13.9679 36.3345 13.9684 35.4793 13.4405 34.9515Z" fill="#3BB77E"/>
<path d="M52.1109 38.3747C51.7551 38.3747 51.4067 38.5193 51.1554 38.7706C50.9042 39.0219 50.7595 39.3708 50.7595 39.726C50.7595 40.0813 50.9042 40.4302 51.1554 40.6815C51.4067 40.9328 51.7551 41.0774 52.1109 41.0774C52.4661 41.0774 52.8145 40.9328 53.0663 40.6815C53.3176 40.4302 53.4622 40.0813 53.4622 39.726C53.4622 39.3708 53.3176 39.0219 53.0663 38.7706C52.8145 38.5193 52.4661 38.3747 52.1109 38.3747Z" fill="#3BB77E"/>
<path d="M17.2618 33.0395C17.5147 32.7883 17.6583 32.4409 17.6583 32.0841C17.6583 31.7288 17.5147 31.3815 17.2618 31.1286C17.0106 30.8774 16.6632 30.7327 16.3069 30.7327C15.9511 30.7327 15.6027 30.8774 15.3515 31.1286C15.0997 31.3799 14.9556 31.7288 14.9556 32.0841C14.9556 32.4409 15.0997 32.7883 15.3515 33.0395C15.6038 33.2924 15.9511 33.4354 16.3069 33.4354C16.6632 33.4354 17.0106 33.2924 17.2618 33.0395Z" fill="#3BB77E"/>
</g>
<defs>
<clipPath id="clip0">
<rect width="69.1892" height="69.1892" fill="white"/>
</clipPath>
</defs>
</svg>

<?xml version="1.0" encoding="utf-8"?>
<!-- Generator: Adobe Illustrator 28.1.0, SVG Export Plug-In . SVG Version: 6.00 Build 0)  -->
<svg version="1.1" id="Layer_1" xmlns="http://www.w3.org/2000/svg" xmlns:xlink="http://www.w3.org/1999/xlink" x="0px" y="0px"
	 viewBox="0 0 70 70" style="enable-background:new 0 0 70 70;" xml:space="preserve">
<style type="text/css">
	.st0{clip-path:url(#SVGID_00000147922756014164022800000004803075251353057719_);}
	.st1{fill:#BC221A;}
</style>
<g>
	<defs>
		<rect id="SVGID_1_" width="69.2" height="69.2"/>
	</defs>
	<clipPath id="SVGID_00000009573335680683504020000012462496769028770206_">
		<use xlink:href="#SVGID_1_"  style="overflow:visible;"/>
	</clipPath>
	<g style="clip-path:url(#SVGID_00000009573335680683504020000012462496769028770206_);">
		<path class="st1" d="M44,5H34L22,17l6,3.5l6-6L46.5,27l4.5,5.5l6.5,1l3-5.5V9l-5-4H44z"/>
		<path d="M64.6,14.4h-2.7l0-4.8c0-3.2-2.6-5.9-5.9-5.9l-20.5,0c0,0,0,0,0,0c-1.2,0-2.3,0.5-3.1,1.3L1.7,35.6
			C0.6,36.7,0,38.2,0,39.7c0,1.6,0.6,3.1,1.7,4.2l19.9,19.9c1.1,1.1,2.7,1.7,4.2,1.7c1.5,0,3-0.6,4.2-1.7l19.3-19.3
			c0.5-0.5,0.5-1.4,0-1.9c-0.5-0.5-1.4-0.5-1.9,0L28,61.9c-1.2,1.2-3.3,1.2-4.5,0L3.6,42c-0.6-0.6-0.9-1.4-0.9-2.3
			c0-0.9,0.3-1.7,0.9-2.3L34.3,6.8c0.3-0.3,0.7-0.5,1.2-0.5h0l20.5,0c1.8,0,3.2,1.4,3.2,3.2l0,11.3h-6.1c-0.5,0-1-0.2-1.3-0.6
			c0.6-0.2,1.1-0.6,1.6-1.1c1.9-1.9,1.9-5.1,0-7c-1.9-1.9-5.1-1.9-7,0c-1.9,1.9-1.9,5.1,0,7c0.7,0.7,1.6,1.2,2.5,1.4
			c0.7,1.7,2.3,3,4.3,3h6.1l0,6.5c0,0.4-0.2,0.9-0.5,1.2L55,34.9c-0.5,0.5-0.5,1.4,0,1.9c0.5,0.5,1.4,0.5,1.9,0l3.7-3.7
			c0.8-0.8,1.3-1.9,1.3-3.1l0-6.5h2.7c2.5,0,4.6-2.1,4.6-4.6C69.2,16.4,67.1,14.4,64.6,14.4z M48.2,14.1c0.4-0.4,1-0.7,1.6-0.7
			c0.6,0,1.2,0.2,1.6,0.7c0.1,0.1,0.3,0.3,0.4,0.5c-1.5,0.5-2.6,1.6-3.1,3.1c-0.2-0.1-0.3-0.2-0.5-0.4C47.3,16.5,47.3,15,48.2,14.1z
			 M64.6,20.9h-2.7l0-3.8h2.7c1,0,1.9,0.8,1.9,1.9C66.5,20,65.6,20.9,64.6,20.9z"/>
		<path d="M21.8,37.7c0.2,0.6,0.7,1,1.3,1c0.1,0,0.2,0,0.4,0l13.9-3.9c0.7-0.2,1.1-0.9,0.9-1.7c-0.2-0.7-0.9-1.1-1.7-0.9l-13.9,3.9
			C22,36.3,21.6,37,21.8,37.7z"/>
		<path d="M27.9,39.5c-0.8,0.8-1.2,1.8-1.2,2.8c0,1.1,0.4,2.1,1.2,2.8c0.8,0.8,1.8,1.2,2.8,1.2c1,0,2-0.4,2.8-1.2
			c1.6-1.6,1.6-4.1,0-5.6S29.5,38,27.9,39.5z M31.6,43.3c-0.5,0.5-1.3,0.5-1.8,0c-0.2-0.2-0.4-0.6-0.4-0.9c0-0.3,0.1-0.7,0.4-0.9
			c0.3-0.2,0.6-0.4,0.9-0.4c0.3,0,0.7,0.1,0.9,0.4C32.1,41.9,32.1,42.8,31.6,43.3z"/>
		<path d="M34.2,31.5c1.6-1.6,1.6-4.1,0-5.6c-0.8-0.8-1.8-1.2-2.8-1.2c-1.1,0-2.1,0.4-2.8,1.2c-1.6,1.6-1.6,4.1,0,5.6
			c0.8,0.8,1.8,1.2,2.8,1.2C32.4,32.6,33.4,32.3,34.2,31.5z M30.5,27.8c0.2-0.2,0.6-0.4,0.9-0.4c0.3,0,0.7,0.1,0.9,0.4
			c0.5,0.5,0.5,1.3,0,1.8c-0.5,0.5-1.3,0.5-1.8,0C30,29.1,30,28.3,30.5,27.8z"/>
		<path d="M13.4,35c-0.5-0.5-1.4-0.5-1.9,0l-3.8,3.8c-0.3,0.3-0.4,0.6-0.4,1c0,0.4,0.1,0.7,0.4,1l17.1,17.1c0.3,0.3,0.6,0.4,1,0.4
			c0.3,0,0.7-0.1,1-0.4l25.6-25.6c0.5-0.5,0.5-1.4,0-1.9L35.2,13.2c-0.3-0.3-0.6-0.4-1-0.4c-0.4,0-0.7,0.1-1,0.4L19.2,27.3
			c-0.5,0.5-0.5,1.4,0,1.9c0.5,0.5,1.4,0.5,1.9,0L34.3,16l15.2,15.2L25.8,55L10.6,39.7l2.9-2.9C14,36.3,14,35.5,13.4,35z"/>
		<path d="M52.1,38.4c-0.4,0-0.7,0.1-1,0.4c-0.3,0.3-0.4,0.6-0.4,1c0,0.4,0.1,0.7,0.4,1c0.3,0.3,0.6,0.4,1,0.4c0.4,0,0.7-0.1,1-0.4
			c0.3-0.3,0.4-0.6,0.4-1c0-0.4-0.1-0.7-0.4-1C52.8,38.5,52.5,38.4,52.1,38.4z"/>
		<path class="st1" d="M17.3,33c0.3-0.3,0.4-0.6,0.4-1c0-0.4-0.1-0.7-0.4-1c-0.3-0.3-0.6-0.4-1-0.4c-0.4,0-0.7,0.1-1,0.4
			c-0.3,0.3-0.4,0.6-0.4,1c0,0.4,0.1,0.7,0.4,1c0.3,0.3,0.6,0.4,1,0.4C16.7,33.4,17,33.3,17.3,33z"/>
	</g>
</g>
</svg>
